X:1
T:Title
%%score 1 2
L:1/8
Q:1/4=93
M:4/4
K:F
V:1 treble nm="Grand Piano, Soprano"
V:2 bass nm="Choir Pad, That Grand Word"
V:1
 C2 C>[CF] [CF]>[CG] [FA][FA]- | [FA][CF] [DG]>[DF] [DF]>[B,D] [A,C]2- | %2
w: By~Eliza~Edmunds~Hewitt * * * * * *||
 [A,C]2 [Fc]>[Fc] [Fc]>[Fc] [Fc]2 | [FA]2 [EG]6 | C2 C>[CF] [CF]>[CG] [FA][FA]- | %5
w: |||
 [FA][CF] [DG]>[DF] [DF]>[B,D] [A,C]2- | [A,C]2 [Fc]>[Fc] [Fc]>[Fc] [FA]2 | [EG]2 F6 | %8
w: |||
 [FA]>[GB] [Ac]6 | [Bd]2 [Ac]4 [FA]2- | [FA]2 [FA]>[CG] [CF]>[FA] [Fc]2 | [FA]2 [EG]6 | %12
w: ||||
 C2 C>[CF] [CF]>[CG] [FA][FA]- | [FA][CF] [DG]>[DF] [DF]>[B,D] [A,C]2- | %14
w: ||
 [A,C]2 [Fc]>[Fc] [Fc]>[Fc] [FA]2 | [EG]2 F6- | F2 z2 z4 |] %17
w: |||
V:2
 [F,A,]2 [F,A,]>[F,A,] [F,A,]>[F,B,] [F,C][F,C]- | %1
 [F,C][F,A,] [B,,B,]>[B,,B,] [B,,B,]>[D,F,] F,2- | F,2 [F,A,]>[F,A,] [F,A,]>[F,A,] [F,A,]2 | %3
 [F,C]2 [C,C]6 | [E,B,]2 [F,A,]>[F,A,] [F,A,]>[F,B,] [F,C][F,C]- | %5
 [F,C][F,A,] [B,,B,]>[B,,B,] [B,,B,]>[D,F,] F,2- | F,2 [F,A,]>[F,A,] [F,A,]>[F,A,] [C,C]2 | %7
 [C,B,]2 [F,A,]6 | z2 [F,C]>[F,C] [F,F]>[F,F] [F,C]2 | z2 [F,C]>[F,C] [F,F]>[F,F] [F,C]2- | %10
 [F,C]2 [F,C]>[F,B,] [F,A,]>[F,C] [A,C]2 | [F,C]2 [C,C]6 | %12
 [E,B,]2 [F,A,]>[F,A,] [F,A,]>[F,B,] [F,C][F,C]- | %13
 [F,C][F,A,] [B,,B,]>[B,,B,] [B,,B,]>[D,F,] F,2- | F,2 [F,A,]>[F,A,] [F,A,]>[F,A,] [C,C]2 | %15
 [C,B,]2 [F,A,]6- | [F,A,]2 z2 z4 |] %17

